dist/svg/static/system-google-plus-small.svg

<svg xmlns="http://www.w3.org/2000/svg" width="24" height="24" viewBox="0 0 24 24"><path d="M16.112 9.565h1.279c.002.427.004.857.008 1.285.428.004.858.004 1.285.008v1.278c-.427.005-.855.007-1.285.011-.004.43-.006.857-.008 1.285h-1.28c-.005-.428-.005-.855-.01-1.283l-1.284-.013v-1.278c.427-.004.855-.006 1.285-.009.002-.43.006-.857.01-1.284zM4.528 11.275c.038-2.318 2.17-4.349 4.488-4.271 1.11-.052 2.155.432 3.006 1.11-.363.413-.74.81-1.141 1.182-1.023-.707-2.477-.909-3.5-.092-1.463 1.012-1.53 3.4-.122 4.49 1.368 1.242 3.955.625 4.333-1.276-.857-.013-1.717 0-2.574-.028-.002-.511-.004-1.023-.002-1.534 1.433-.004 2.866-.006 4.301.004.086 1.203-.073 2.484-.812 3.479-1.12 1.574-3.367 2.034-5.12 1.36-1.76-.67-3.005-2.53-2.857-4.424z" fill="currentColor"/><circle fill="none" stroke="currentColor" stroke-miterlimit="10" cx="11.5" cy="11.5" r="11"/></svg>

<?xml version="1.0" encoding="UTF-8" standalone="no"?>
<svg width="24px" height="24px" viewBox="0 0 24 24" version="1.1" xmlns="http://www.w3.org/2000/svg" xmlns:xlink="http://www.w3.org/1999/xlink">
    <!-- Generator: sketchtool 46.2 (44496) - http://www.bohemiancoding.com/sketch -->
    <title>system-google-plus-small</title>
    <desc>Created with sketchtool.</desc>
    <defs></defs>
    <g id="icons-published" stroke="none" stroke-width="1" fill="none" fill-rule="evenodd">
        <g id="briefing" transform="translate(-644.000000, -1818.000000)"></g>
        <g id="system-google-plus-small">
            <path d="M16.1,9.6 L17.4,9.6 C17.4,10 17.4,10.5 17.4,10.9 C17.8,10.9 18.3,10.9 18.7,10.9 L18.7,12.2 C18.3,12.2 17.8,12.2 17.4,12.2 C17.4,12.6 17.4,13.1 17.4,13.5 L16.1,13.5 C16.1,13.1 16.1,12.6 16.1,12.2 L14.8,12.2 L14.8,10.9 C15.2,10.9 15.7,10.9 16.1,10.9 C16.1,10.4 16.1,10 16.1,9.6 Z M4.5,11.3 C4.6,9 6.7,6.9 9,7 C10.1,6.9 11.2,7.4 12,8.1 C11.6,8.5 11.3,8.9 10.9,9.3 C9.9,8.6 8.4,8.4 7.4,9.2 C5.9,10.2 5.9,12.6 7.3,13.7 C8.7,14.9 11.3,14.3 11.6,12.4 C10.7,12.4 9.9,12.4 9,12.4 C9,11.9 9,11.4 9,10.9 C10.4,10.9 11.9,10.9 13.3,10.9 C13.4,12.1 13.2,13.4 12.5,14.4 C11.4,16 9.1,16.4 7.4,15.8 C5.6,15 4.4,13.2 4.5,11.3 Z" id="Shape" fill="#000000" fill-rule="nonzero"></path>
            <circle id="Oval" stroke="#000000" cx="11.5" cy="11.5" r="11"></circle>
        </g>
    </g>
</svg>
